sites/sveltevietnam.dev/src/routes/(site)/_page/sections/intro/images/disk.svg

<svg width="61" height="60" viewBox="0 0 61 60" fill="none" xmlns="http://www.w3.org/2000/svg">
<path d="M3.19957 36.2318C6.27553 29.8822 11.6153 22.847 18.2394 16.425C24.8635 10.0031 31.9893 4.9428 38.3048 2.18318C44.8187 -0.662145 49.7652 -0.726898 52.2293 1.99273L58.8975 9.38028C61.3634 12.1094 60.9739 17.2192 57.795 23.7688C54.7209 30.1165 49.3793 37.1517 42.7552 43.5756C36.131 49.9995 29.0071 55.0578 22.6898 57.8174C19.3603 59.2725 16.4423 60 14.0536 60C11.7696 60 9.97071 59.3334 8.76716 57.9984L2.09708 50.6108C-0.361481 47.8893 0.0280669 42.7795 3.19957 36.2318ZM9.71163 57.0956C11.7512 59.3544 16.3009 59.1735 22.1955 56.5967C28.375 53.8961 35.3666 48.9291 41.8824 42.61C48.3981 36.2909 53.6423 29.389 56.6521 23.1841C59.5222 17.2573 59.9982 12.5627 57.9585 10.304L53.7636 5.65889C54.0888 8.44708 53.2123 12.1132 51.1323 16.3946C48.0563 22.7442 42.7147 29.7775 36.0906 36.2014C29.4665 42.6252 22.3425 47.6836 16.0252 50.4432C12.6975 51.8983 9.77777 52.6258 7.38904 52.6258C6.75983 52.6288 6.13173 52.5708 5.51296 52.4525L9.71163 57.0956ZM3.04154 49.7081C5.08115 51.9668 9.63077 51.7859 15.5254 49.2091C21.7067 46.5085 28.6965 41.5416 35.2123 35.2225C41.728 28.9033 46.9722 22.0033 49.982 15.7965C52.8522 9.86974 53.3281 5.17705 51.2903 2.91831C50.3422 1.86703 48.852 1.34519 46.9355 1.34519C44.7305 1.34519 41.9595 2.03843 38.8046 3.41538C32.6251 6.11597 25.6335 11.0829 19.1177 17.402C12.602 23.7212 7.35781 30.6231 4.348 36.8279C1.47784 42.7586 1.00193 47.4493 3.04154 49.7081Z" fill="var(--color-tertiary-on-surface)"/>
<path d="M3.04154 49.7081C5.08115 51.9668 9.63077 51.7859 15.5254 49.2091C21.7067 46.5085 28.6965 41.5416 35.2123 35.2225C41.728 28.9033 46.9722 22.0033 49.982 15.7965C52.8522 9.86974 53.3281 5.17705 51.2903 2.91831C50.3422 1.86703 48.852 1.34519 46.9355 1.34519C44.7305 1.34519 41.9595 2.03843 38.8046 3.41538C32.6251 6.11597 25.6335 11.0829 19.1177 17.402C12.602 23.7212 7.35781 30.6231 4.348 36.8279C1.47784 42.7586 1.00193 47.4493 3.04154 49.7081Z" fill="var(--color-tertiary-surface)"/>
<path d="M5.51458 52.4468L9.71163 57.0956C11.7512 59.3544 16.3009 59.1735 22.1955 56.5967C28.375 53.8961 35.3666 48.9291 41.8824 42.61C48.3981 36.2909 53.6423 29.389 56.6521 23.1841C59.5222 17.2573 59.9982 12.5627 57.9585 10.304L53.7636 5.65889C54.0888 8.44708 53.2123 12.1132 51.1323 16.3946C48.0563 22.7442 42.7147 29.7775 36.0906 36.2014C29.4665 42.6252 22.3425 47.6836 16.0252 50.4432C12.6975 51.8983 9.77777 52.6258 7.38904 52.6258C6.76027 52.6268 6.13257 52.5669 5.51458 52.4468Z" fill="var(--color-tertiary)"/>
</svg>

<svg xmlns="http://www.w3.org/2000/svg" fill="none" viewBox="0 0 61 60">
  <path fill="var(--color-tertiary-on-surface)" d="M3.2 36.2c3-6.3 8.4-13.4 15-19.8A72 72 0 0 1 38.3 2.2c6.5-2.9 11.5-3 14-.2l6.6 7.4c2.5 2.7 2 7.8-1.1 14.4-3 6.3-8.4 13.4-15 19.8a72 72 0 0 1-20.1 14.2A22.4 22.4 0 0 1 14 60a7 7 0 0 1-5.3-2L2 50.6c-2.5-2.7-2-7.8 1.1-14.4Zm6.5 20.9c2 2.3 6.6 2 12.5-.5a70.7 70.7 0 0 0 19.7-14 73.1 73.1 0 0 0 14.8-19.4c2.8-6 3.3-10.6 1.3-12.9l-4.2-4.6a21 21 0 0 1-2.7 10.7c-3 6.3-8.4 13.4-15 19.8a72 72 0 0 1-20 14.2 22.4 22.4 0 0 1-8.7 2.2l-1.9-.1L9.7 57ZM3 49.7c2 2.3 6.6 2 12.5-.5a70.7 70.7 0 0 0 19.7-14A73 73 0 0 0 50 15.8c2.9-6 3.3-10.6 1.3-12.9-1-1-2.4-1.6-4.4-1.6-2.2 0-5 .7-8.1 2.1a70.7 70.7 0 0 0-19.7 14A73.1 73.1 0 0 0 4.3 36.8c-2.8 6-3.3 10.6-1.3 13Z"/>
  <path fill="var(--color-tertiary-surface)" d="M3 49.7c2 2.3 6.6 2 12.5-.5a70.7 70.7 0 0 0 19.7-14A73 73 0 0 0 50 15.8c2.9-6 3.3-10.6 1.3-12.9-1-1-2.4-1.6-4.4-1.6-2.2 0-5 .7-8.1 2.1a70.7 70.7 0 0 0-19.7 14A73.1 73.1 0 0 0 4.3 36.8c-2.8 6-3.3 10.6-1.3 13Z"/>
  <path fill="var(--color-tertiary)" d="m5.5 52.4 4.2 4.7c2 2.3 6.6 2 12.5-.5a70.7 70.7 0 0 0 19.7-14 73.1 73.1 0 0 0 14.8-19.4c2.8-6 3.3-10.6 1.3-12.9l-4.2-4.6a21 21 0 0 1-2.7 10.7c-3 6.3-8.4 13.4-15 19.8a72 72 0 0 1-20 14.2 22.4 22.4 0 0 1-8.7 2.2c-.6 0-1.3 0-1.9-.2Z"/>
</svg>
